assets/icons/emote/embarrassed-filled.svg

<?xml version="1.0" encoding="UTF-8" standalone="no"?>
<svg
   viewBox="0 0 24 24"
   width="24"
   height="24"
   version="1.1"
   id="svg4"
   sodipodi:docname="embarrassed-filled.svg"
   inkscape:version="1.2 (1:1.2.1+202207142221+cd75a1ee6d)"
   xmlns:inkscape="http://www.inkscape.org/namespaces/inkscape"
   xmlns:sodipodi="http://sodipodi.sourceforge.net/DTD/sodipodi-0.dtd"
   xmlns="http://www.w3.org/2000/svg"
   xmlns:svg="http://www.w3.org/2000/svg"
   xmlns:rdf="http://www.w3.org/1999/02/22-rdf-syntax-ns#"
   xmlns:cc="http://creativecommons.org/ns#"
   xmlns:dc="http://purl.org/dc/elements/1.1/">
  <metadata
     id="metadata10">
    <rdf:RDF>
      <cc:Work
         rdf:about="">
        <dc:format>image/svg+xml</dc:format>
        <dc:type
           rdf:resource="http://purl.org/dc/dcmitype/StillImage" />
      </cc:Work>
    </rdf:RDF>
  </metadata>
  <defs
     id="defs8" />
  <sodipodi:namedview
     pagecolor="#ffffff"
     bordercolor="#666666"
     borderopacity="1"
     objecttolerance="10"
     gridtolerance="10"
     guidetolerance="10"
     inkscape:pageopacity="0"
     inkscape:pageshadow="2"
     inkscape:window-width="1920"
     inkscape:window-height="1016"
     id="namedview6"
     showgrid="true"
     inkscape:zoom="19.445436"
     inkscape:cx="-3.908372"
     inkscape:cy="5.7854191"
     inkscape:window-x="0"
     inkscape:window-y="0"
     inkscape:window-maximized="1"
     inkscape:current-layer="svg4"
     inkscape:pagecheckerboard="0"
     inkscape:showpageshadow="2"
     inkscape:deskcolor="#d1d1d1">
    <inkscape:grid
       type="xygrid"
       id="grid1437" />
  </sodipodi:namedview>
  <path
     id="path993"
     style="fill:#808080;fill-opacity:1;fill-rule:evenodd;stroke:none;stroke-width:0.75;stroke-linecap:square;stroke-linejoin:round;stroke-opacity:1"
     d="M 11.953125 2.625 A 9.375 9.375 0 0 0 2.625 12 A 9.375 9.375 0 0 0 12 21.375 A 9.375 9.375 0 0 0 21.375 12 A 9.375 9.375 0 0 0 12 2.625 A 9.375 9.375 0 0 0 11.953125 2.625 z M 8.921875 9.109375 L 8.921875 9.1113281 C 9.8406232 9.1113281 10.757813 9.6687523 10.757812 10.75 C 8.8828167 10.3275 6.8515629 12.916246 7.0078125 10.75 C 7.0865623 9.6675023 8.0043768 9.109375 8.921875 9.109375 z M 15.085938 9.109375 C 16.003436 9.109375 16.9225 9.6675023 17 10.75 C 17.15625 12.916246 15.124996 10.3275 13.25 10.75 C 13.25 9.6675024 14.167188 9.109375 15.085938 9.109375 z M 7 12.3125 A 0.9375 0.9375 0 0 1 7.9375 13.25 A 0.9375 0.9375 0 0 1 7 14.1875 A 0.9375 0.9375 0 0 1 6.0625 13.25 A 0.9375 0.9375 0 0 1 7 12.3125 z M 17 12.3125 A 0.9375 0.9375 0 0 1 17.9375 13.25 A 0.9375 0.9375 0 0 1 17 14.1875 A 0.9375 0.9375 0 0 1 16.0625 13.25 A 0.9375 0.9375 0 0 1 17 12.3125 z M 11.25 15.125 L 12.75 15.125 C 13.027 15.125 13.25 15.348 13.25 15.625 L 13.25 15.875 C 13.25 16.152 13.027 16.375 12.75 16.375 L 11.25 16.375 C 10.973 16.375 10.75 16.152 10.75 15.875 L 10.75 15.625 C 10.75 15.348 10.973 15.125 11.25 15.125 z " />
</svg>

<svg width="24" height="24" xmlns="http://www.w3.org/2000/svg"><path style="fill:gray;fill-opacity:1;stroke:none;stroke-width:.75;stroke-linecap:square;stroke-linejoin:round;stroke-opacity:1" d="M11.953 2.625A9.375 9.375 0 0 0 2.625 12 9.375 9.375 0 0 0 12 21.375 9.375 9.375 0 0 0 21.375 12 9.375 9.375 0 0 0 12 2.625a9.375 9.375 0 0 0-.047 0zM8.922 9.109v.002c.919 0 1.836.558 1.836 1.639-1.875-.422-3.906 2.166-3.75 0 .079-1.082.996-1.64 1.914-1.64zm6.164 0c.917 0 1.836.559 1.914 1.641.156 2.166-1.875-.422-3.75 0 0-1.082.917-1.64 1.836-1.64zM7 12.313a.938.938 0 0 1 .938.937.938.938 0 0 1-.938.938.938.938 0 0 1-.938-.938.938.938 0 0 1 .938-.938zm10 0a.938.938 0 0 1 .938.937.938.938 0 0 1-.938.938.938.938 0 0 1-.938-.938.938.938 0 0 1 .938-.938zm-5.75 2.812h1.5c.277 0 .5.223.5.5v.25c0 .277-.223.5-.5.5h-1.5a.499.499 0 0 1-.5-.5v-.25c0-.277.223-.5.5-.5z"/></svg>
